X: 123204
P: Same Figure.
M: C
L: 1/8
K: G
|:\
vG2(BG) BddB | c2ec egg2 |\
g2(bg) afed | edef gdBd |
g2(bg) afed | edef g2(ga) |\
bagf gfed | edef gdBd |\
cBcd efge | dBGB A2G2 |]



